resources/svg/pinyin-input.svg

<svg fill="currentColor" viewBox="0 0 24 24" xmlns="http://www.w3.org/2000/svg"><path d="M17.934 3.0359L19.666 4.0359L18.531 6H21V8H19V12H21V14H19V21H17V14L13.9157 14.0004C13.5914 16.8623 12.3522 19.3936 10.5466 21.1933L8.98361 19.9233C10.5031 18.4847 11.5801 16.4008 11.9008 14.0009L10 14V12L12 11.999V8H10V6H12.467L11.334 4.0359L13.066 3.0359L14.777 6H16.221L17.934 3.0359ZM5 13.803L3 14.339V12.268L5 11.732V8H3V6H5V3H7V6H9V8H7V11.197L9 10.661V12.731L7 13.267V18.5C7 19.8807 5.88071 21 4.5 21H3V19H4.5C4.74546 19 4.94961 18.8231 4.99194 18.5899L5 18.5V13.803ZM17 8H14V12H17V8Z"/></svg>

<svg xmlns="http://www.w3.org/2000/svg" viewBox="0 0 24 24" fill="currentColor">
    <path fill="none" d="M0 0h24v24H0z"/>
    <path d="M17.934 3.036l1.732 1L18.531 6H21v2h-2v4h2v2h-2v7h-2v-7h-3.084c-.325 2.862-1.564 5.394-3.37 7.193l-1.562-1.27c1.52-1.438 2.596-3.522 2.917-5.922L10 14v-2l2-.001V8h-2V6h2.467l-1.133-1.964 1.732-1L14.777 6h1.444l1.713-2.964zM5 13.803l-2 .536v-2.071l2-.536V8H3V6h2V3h2v3h2v2H7v3.197l2-.536v2.07l-2 .536V18.5A2.5 2.5 0 0 1 4.5 21H3v-2h1.5a.5.5 0 0 0 .492-.41L5 18.5v-4.697zM17 8h-3v4h3V8z"/>
</svg>
